rospo-light/16x16/actions/preferences-activities.svg

<svg height="16" viewBox="0 0 16 16" width="16" xmlns="http://www.w3.org/2000/svg"><path d="m8 4a4 4 0 0 0 -4 4 4 4 0 0 0 4 4 4 4 0 0 0 4-4 4 4 0 0 0 -4-4zm-4 1c-1.6569 0-3 1.3431-3 3s1.3431 3 3 3l .0273438-.001953c-.6358001-.839-1.0273438-1.870747-1.0273438-2.998047 0-1.1283.3923969-2.1589469 1.0292969-2.9980469zm8 0c-.01042.0005967-.02084.0012531-.03125.0019531.637.8392 1.03125 1.8696469 1.03125 2.9980469 0 1.1274-.393307 2.159247-1.029297 2.998047l.029297.001953c1.6569 0 3-1.3431 3-3s-1.3431-3-3-3z" fill="#5c616c"/></svg>

<?xml version="1.0" encoding="UTF-8" standalone="no"?>
<svg xmlns="http://www.w3.org/2000/svg" width="22" height="22" viewBox="0 0 22 22">
 <defs>
  <style type="text/css" id="current-color-scheme">
   .ColorScheme-Text { color:#5c616c; } .ColorScheme-Highlight { color:#5294e2; }
  </style>
 </defs>
 <path style="fill:currentColor;opacity:1" class="ColorScheme-Text" transform="translate(3 3)" d="M 8 4 A 4 4 0 0 0 4 8 A 4 4 0 0 0 8 12 A 4 4 0 0 0 12 8 A 4 4 0 0 0 8 4 z M 4 5 C 2.3431 5 1 6.3431 1 8 C 1 9.6569 2.3431 11 4 11 L 4.0273438 10.998047 C 3.3915437 10.159047 3 9.1273 3 8 C 3 6.8717 3.3923969 5.8410531 4.0292969 5.0019531 L 4 5 z M 12 5 C 11.98958 5.0005967 11.97916 5.0012531 11.96875 5.0019531 C 12.60575 5.8411531 13 6.8716 13 8 C 13 9.1274 12.606693 10.159247 11.970703 10.998047 L 12 11 C 13.6569 11 15 9.6569 15 8 C 15 6.3431 13.6569 5 12 5 z"/>
</svg>
